X: 20611
T: Open the Door to Three
%R: slip-jig
B: James Oswald "The Caledonian Pocket Companion" v.2 p.61 #1
Z: 2019 John Chambers <jc:trillian.mit.edu>
M: 9/8	% The book has 6/8
L: 1/8
K: G
"_Brisk"D |\
GAG c2B AFD | GAG BGB ~c2d |\
efg dcB AFD | GAG BAB G2 :: (e/f/) |\
gfe dcB AFD |
gfe def ~g2d |\
cac BgB AFD | G2G TBAB G2 :: D |\
G2c (B/c/d)B AFD | G2g (B/c/d)B c2d |
(e/f/g)c BGB AFD | GdB cAF G2 :: (e/f/) |\
g3 dBg AFD | g3 dBd g2d |\
g2B g2B AFD | GdB cAF G2 :|
